X:247
T: FRISCH AUF MEIN LIEBES TOECHTERLEIN
N: E0832
O: Europa, Mitteleuropa, Deutschland
R: Hochzeits -, Ehestands - Lied
M: 4/4
L: 1/4
K: G
d | BGAD | GBA
A | Bdd^c | d2z
A | BcdB | cAB
D | EGGF | G2z

@@@ Tune index: 4560
